X:148
T:Osborne's (2003) Breakdo
R:reel
C:Bruce Osborne - Dec. 2002
Z:abc by bosborne@kos.net
M:2/4
L:1/8
K:Bb
F/A/|B/A/B/c/ B/F/D/F/|B/A/B/c/ d/B/F/B/|c/B/c/d/ c/A/F/A/|B/c/d/g/ f/e/d/c/|\
B/A/B/c/ B/F/D/F/|B/A/B/c/ d/B/F/B/|c/B/c/d/ e/c/A/c/|B/A/B/c/ B:|
|:g|f/B/A/B/ F/B/A/B/|F/D/B,/D/ F/B/A/B/|c/F/=E/F/ C/F/=E/F/|c/B/B/A/ B/c/d/e/|\
f/B/A/B/ F/B/A/B/|F/D/B,/D/ F/B/A/B/|c/F/=E/F/ C/F/=E/F/|B/A/B/c/ B:|
